src/img/icon/plane.svg

<?xml version="1.0" encoding="UTF-8"?> <svg xmlns="http://www.w3.org/2000/svg" width="50" height="51" viewBox="0 0 50 51" fill="none"> <path d="M40.9256 15.7388L34.353 21.9103L40.603 39.0978L35.9155 43.7853L26.5781 30.1175L21.853 34.4103V39.0978L17.1655 43.7853L14.3936 35.6107L6.22803 32.8478L10.9155 28.1603H15.603L20.2905 23.4728L6.22803 14.0978L10.9155 9.41026L28.103 15.6603L34.2965 9.10965L34.1635 9.2207C34.5986 8.78464 35.1154 8.43861 35.6843 8.20241C36.2532 7.96621 36.8631 7.84445 37.4791 7.84412C38.0951 7.84378 38.7051 7.96486 39.2743 8.20044C39.8435 8.43602 40.3607 8.78147 40.7962 9.21705C41.2318 9.65264 41.5773 10.1698 41.8128 10.739C42.0484 11.3082 42.1695 11.9182 42.1692 12.5342C42.1688 13.1502 42.0471 13.7601 41.8109 14.3291C41.5747 14.898 41.2286 15.4148 40.7926 15.8499L40.9256 15.7388Z" stroke="#D32F2A" stroke-width="2.34375" stroke-linecap="round" stroke-linejoin="round"></path> </svg>

<svg xmlns="http://www.w3.org/2000/svg" width="50" height="51" fill="none"><path d="M40.926 15.739l-6.573 6.171 6.25 17.188-4.688 4.687-9.337-13.667-4.725 4.292v4.688l-4.688 4.687-2.771-8.174-8.166-2.763 4.688-4.688h4.687l4.688-4.687-14.063-9.375 4.688-4.688 17.187 6.25 6.194-6.55-.133.11a4.688 4.688 0 116.629 6.63l.133-.111z" stroke="#D32F2A" stroke-width="2.344" stroke-linecap="round" stroke-linejoin="round"/></svg>
